X:22
T: Das Maedchen und der Faehnrich
N: Q0127C
O: Mitteleuropa, Deutschland / Frankreich, Lothringen
R: Ballade, verbotene Liebe, Flucht
M: 6/8
L: 1/16
K: G
D2 | D2G2G2G4B2 | B4d2G4
B2 | B2A2A2D2F2A2 | A6G4
D2 | D2G2GGG2B2B2 | B4d2G4
B2 | B2A2A2D2F2A2 | A6G4

@@@ Tune index: 1520
